X:1
T:Merrily we roll along
M:4/4
L:1/4
K:C 1&1
LC  Mc LC  Mc & E D C  D|\
LC  Mc LC  Mc & E E E2  |\
LG, MG LG, MG & D D D2  |\
LC  Mc LC  Mc & E G G2  |\
LC  Mc LC  Mc & E D C  D|\
LC  Mc LC  Mc & E E E2  |\
LG, MG LG, MG & D D E  D|\
\mulooseness=1
LC & C4&& Mc &    && LC &   && Mc &  |
\interinstrument=5pt
